packages/icons/src/components/Logo/assets/dark/open-vpn.svg

<svg width="20" height="20" viewBox="0 0 20 20" fill="none" xmlns="http://www.w3.org/2000/svg">
<g>
<path d="M20 10.2049C20 4.73883 15.5232 0.307617 9.99983 0.307617C4.47876 0.307617 0 4.73883 0 10.2049C0 13.8358 1.98222 17 4.92604 18.7246L5.5671 14.482C4.61718 13.4356 4.03415 12.056 4.03415 10.5383C4.03415 7.27737 6.7058 4.63302 9.99983 4.63302C13.2962 4.63302 15.9658 7.27737 15.9658 10.5383C15.9658 12.0696 15.3758 13.4588 14.4122 14.505L15.0506 18.7386C18.0081 17.0183 20 13.8472 20 10.2049Z" fill="#FF7A24"/>
<path d="M11.0972 13.199L12.3119 19.6929H7.61868L8.82876 13.2103C7.63235 12.7574 6.77716 11.6121 6.77716 10.2601C6.77716 8.51221 8.19737 7.0957 9.94678 7.0957C11.6989 7.0957 13.1164 8.51221 13.1164 10.2601C13.1164 11.6008 12.2776 12.7388 11.0972 13.199Z" fill="white"/>
</g>
<defs>
<clipPath id="clip0_378_522">
<rect width="20" height="19.3939" fill="white" transform="translate(0 0.303223)"/>
</clipPath>
</defs>
</svg>

<svg xmlns="http://www.w3.org/2000/svg" width="20" height="20" fill="none" viewBox="0 0 20 20">
    <path fill="#ff7a24" d="M20 10.205C20 4.739 15.523.308 10 .308c-5.521 0-10 4.43-10 9.897 0 3.63 1.982 6.795 4.926 8.52l.641-4.243a5.85 5.85 0 0 1-1.533-3.944c0-3.26 2.672-5.905 5.966-5.905 3.296 0 5.966 2.644 5.966 5.905 0 1.532-.59 2.92-1.554 3.967l.639 4.234C18.008 17.019 20 13.847 20 10.205"/>
    <path fill="#fff" d="m11.097 13.199 1.215 6.494H7.619l1.21-6.483a3.16 3.16 0 0 1-2.052-2.95 3.17 3.17 0 0 1 3.17-3.164 3.166 3.166 0 0 1 3.17 3.164c0 1.34-.84 2.479-2.02 2.939"/>
</svg>
